!!!COA:	Josquin des Prez
!!!CDT:	~1450-1521/08/27
!!!OTL@@LAT:In illo tempore stetit Jesus
!!!AGN:	Motet
!!!SCT:	NJE 19.6
!!!SCA:	New Josquin Edition 19.6
!!!voices:	6
**kern	**kern	**kern	**kern	**kern	**kern
*staff6	*staff5	*staff4	*staff3	*staff2	*staff1
*Ivox	*Ivox	*Ivox	*Ivox	*Ivox	*Ivox
*I"Bassus2	*I"Bassus1	*I"Tenor2	*I"Tenor1	*I"Altus	*I"Superius
*I'B2	*I'B1	*I'T2	*I'T1	*I'A	*I'S
*clefF4	*clefGv2	*clefGv2	*clefGv2	*clefG2	*clefG2
*k[]	*k[]	*k[]	*k[]	*k[]	*k[]
*M2/1	*M2/1	*M2/1	*M2/1	*M2/1	*M2/1
*met(C|)	*met(C|)	*met(C|)	*met(C|)	*met(C|)	*met(C|)
=1-	=1-	=1-	=1-	=1-	=1-
0r	0d	0r	0r	0r	0r
=2	=2	=2	=2	=2	=2
0G	1B	0r	0r	0r	0r
.	1d	.	.	.	.
=3	=3	=3	=3	=3	=3
1E	1e	0r	0r	0g	0r
1G	2d\	.	.	.	.
.	[2d\	.	.	.	.
=4	=4	=4	=4	=4	=4
1A	2d\]	0r	1r	1e	0r
.	2c\	.	.	.	.
2G\	2d\	.	[1d	1g	.
[2G\	2B\	.	.	.	.
=5	=5	=5	=5	=5	=5
2G\]	1A	0r	1d]	1a	1r
2F\	.	.	.	.	.
1G	1B	.	1B	2g/	[1dd
.	.	.	.	[2g/	.
=6	=6	=6	=6	=6	=6
1D	1A	0r	1d	2g/]	1dd]
.	.	.	.	2f/	.
1r	1G	.	1e	[1g	1b
=7	=7	=7	=7	=7	=7
1G	2r	0r	2d\	0g_	1dd
.	1G	.	1d	.	.
2C/	.	.	.	.	1ee
2C/	2A/	.	2c\	.	.
=8	=8	=8	=8	=8	=8
2G\	2B\	0r	1d	1g]	2dd\
2B\	2G/	.	.	.	1dd
1A	2.c\	.	1e	1a	.
.	.	.	.	.	2cc\
.	4B\	.	.	.	.
=9	=9	=9	=9	=9	=9
2r	2G/	[0d	2d\	2r	0dd
2.B\	1d	.	2D/	2f/	.
.	.	.	1G	1g	.
4A\	.	.	.	.	.
[2G\	4c\	.	.	.	.
.	4B\	.	.	.	.
=10	=10	=10	=10	=10	=10
2G\]	1A	0d_	1D	1a	[0dd
2F#i\	.	.	.	.	.
1G	1B	.	1G	2d/	.
.	.	.	.	[2g/	.
=11	=11	=11	=11	=11	=11
1D	1A	0d_	0r	2g/]	1dd]
.	.	.	.	2f#i/	.
1r	1G	.	.	1g	1b
=12	=12	=12	=12	=12	=12
1GG	2r	0d_	2r	2r	1b
.	2G/	.	2.d\	1dd	.
1D	2G/	.	.	.	[1a
.	.	.	4e\	.	.
.	4F/	.	[2f\	2dd\	.
.	4E/	.	.	.	.
=13	=13	=13	=13	=13	=13
1D	1F	0d_	4f\]	1dd	1a]
.	.	.	4e\	.	.
.	.	.	4d\	.	.
.	.	.	4c\	.	.
2GG/	1G	.	1B	1dd	1b
2G\	.	.	.	.	.
=14	=14	=14	=14	=14	=14
2G\	2D/	0d_	1A	1r	1.dd
2F\	2A/	.	.	.	.
1G	1B	.	2G/	1g	.
.	.	.	2g\	.	2dd\
=15	=15	=15	=15	=15	=15
1D	1A	0d_	2g\	1a	0dd
.	.	.	2f\	.	.
1GG	2G/	.	2g\	1b	.
.	[2B\	.	[2g\	.	.
=16	=16	=16	=16	=16	=16
1.G	2B\]	0d]	2g\]	2g/	1b
.	2B\	.	2g\	1b	.
.	1B	.	2g\	.	[1dd
2G\	.	.	2g\	2b\	.
=17	=17	=17	=17	=17	=17
2G\	1B	[0d	2d\	2g/	2dd\]
2G\	.	.	1g	2g/	2dd\
[1D	[1A	.	.	1a	2dd\
.	.	.	4f\	.	2dd\
.	.	.	4e\	.	.
=18	=18	=18	=18	=18	=18
0D]	1A]	0d_	2.f\	0dd	2a/
.	.	.	.	.	4b\
.	.	.	4e\	.	4a/
.	1F	.	2d\	.	2b\
.	.	.	2c\	.	[2a/
=19	=19	=19	=19	=19	=19
1GG	2D/	0d]	2B\	0dd	4a/]
.	.	.	.	.	4g/
.	2E/	.	4A/	.	1g
.	.	.	4G/	.	.
1D	1F	.	1A	.	.
.	.	.	.	.	2f#i/
=20	=20	=20	=20	=20	=20
1GG	2D/	0B	0G	0dd	0g
.	1G	.	.	.	.
2r	.	.	.	.	.
[2G\	2G/	.	.	.	.
=21	=21	=21	=21	=21	=21
2G\]	2.E/	[0B	1r	0r	2r
2G\	.	.	.	.	1g
.	4F/	.	.	.	.
2.E\	1G	.	2r	.	.
.	.	.	[2g\	.	2g/
4F\	.	.	.	.	.
=22	=22	=22	=22	=22	=22
1G	1r	0B_	2g\]	2r	2d/
.	.	.	2g\	1dd	2d/
[1G	[1d	.	2d\	.	2g/
.	.	.	2d\	2dd\	[2dd\
=23	=23	=23	=23	=23	=23
1G]	2d\]	0B_	1g	2.b\	2dd\]
.	2d\	.	.	.	2dd\
.	.	.	.	4cc\	.
[1G	1d	.	[1G	1dd	2.b\
.	.	.	.	.	4cc\
=24	=24	=24	=24	=24	=24
2G\]	1d	0B]	1G]	1g	1dd
2F\	.	.	.	.	.
1E	1e	.	1G	1g	1r
=25	=25	=25	=25	=25	=25
[0D	2.f\	[0d	0A	2.f/	1a
.	4e\	.	.	4g/	.
.	2d\	.	.	4a/	[1dd
.	.	.	.	4b-i\	.
.	2c\	.	.	[2a/	.
=26	=26	=26	=26	=26	=26
0D]	2B\	0d_	2D/	2a/]	2dd\]
.	4A/	.	2E/	1g	2dd\
.	4G/	.	.	.	.
.	1A	.	1F	.	2dd\
.	.	.	.	2f#i/	2dd\
=27	=27	=27	=27	=27	=27
[0GG	0G	0d_	2D/	1g	[0b
.	.	.	2d\	.	.
.	.	.	2B\	2r	.
.	.	.	2G/	2dd\	.
=28	=28	=28	=28	=28	=28
0GG]	2r	0d]	2d\	2b\	1b]
.	2d\	.	2d\	2g/	.
.	2B\	.	[1G	2dd\	2r
.	2G/	.	.	2dd\	2dd\
=29	=29	=29	=29	=29	=29
1r	2d\	0d	1G]	0g	2b\
.	2d\	.	.	.	2g/
2r	1G	.	2r	.	2dd\
2G\	.	.	2B\	.	2dd\
=30	=30	=30	=30	=30	=30
2E\	2r	[0e	2B\	1r	1g
2C/	2G/	.	2c\	.	.
2G\	2E/	.	2B\	1g	1r
2G\	2C/	.	2c\	.	.
=31	=31	=31	=31	=31	=31
2.C/	2G/	0e_	1.c	2e/	1g
.	2G/	.	.	2c/	.
4D\	.	.	.	.	.
1E	[1C	.	.	2g/	2e/
.	.	.	4B\	2g/	2c/
.	.	.	4A/	.	.
=32	=32	=32	=32	=32	=32
2r	1C]	0e_	1.G	4c/	2g/
.	.	.	.	4d/	.
2E\	.	.	.	4e/	2g/
.	.	.	.	4f/	.
2C/	1E	.	.	4g/	1c
.	.	.	.	4e/	.
2AA/	.	.	2c\	[2a/	.
=33	=33	=33	=33	=33	=33
2E\	2r	0e_	1B	2a/]	1r
2E\	2G/	.	.	2g#i/	.
1AA	2E/	.	1A	1a	1cc
.	2C/	.	.	.	.
=34	=34	=34	=34	=34	=34
1E	2G/	0e_	2r	1.g	0b
.	2G/	.	1B	.	.
2r	2E/	.	.	.	.
[2E\	[2G/	.	2B\	2g/	.
=35	=35	=35	=35	=35	=35
2E\]	2G/]	0e]	2G/	1g	1b
2E\	2G/	.	2G/	.	.
2C/	2.G/	.	1c	2.e/	1cc
2C/	.	.	.	.	.
.	4A/	.	.	4f/	.
=36	=36	=36	=36	=36	=36
[0G	1B	[0d	2r	0g	[0b
.	.	.	2d\	.	.
.	2r	.	2B\	.	.
.	2d\	.	2G/	.	.
=37	=37	=37	=37	=37	=37
1G]	2B\	0d_	2.d\	2r	1b]
.	2G/	.	.	1g	.
.	.	.	4c\	.	.
2r	[1d	.	2B\	.	1r
2D\	.	.	[2A/	2f/	.
=38	=38	=38	=38	=38	=38
2BB/	2d\]	0d_	4A/]	2g/	0r
.	.	.	4G/	.	.
2GG/	4c\	.	1G	2g/	.
.	4B\	.	.	.	.
1D	1A	.	.	2a/	.
.	.	.	2F#i/	2dd\	.
=39	=39	=39	=39	=39	=39
[0GG	0G	0d]	1G	2b\	2r
.	.	.	.	2g/	2dd\
.	.	.	2r	2dd\	2b\
.	.	.	2d\	2dd\	2g/
=40	=40	=40	=40	=40	=40
1GG]	2r	[0d	2B\	1g	2.dd\
.	2G/	.	2G/	.	.
.	.	.	.	.	4cc\
2r	2G/	.	[1d	1r	2b\
2D\	2F/	.	.	.	[2a/
=41	=41	=41	=41	=41	=41
2BB/	2G/	0d_	2d\]	1.dd	4a/]
.	.	.	.	.	4g/
2GG/	2G/	.	4c\	.	1g
.	.	.	4B\	.	.
2D\	2D/	.	1A	.	.
2D\	2A/	.	.	2dd\	2f#i/
=42	=42	=42	=42	=42	=42
2GG/	1B	0d_	1G	2b\	1g
1G	.	.	.	2g/	.
.	1A	.	1D	1a	1r
2F\	.	.	.	.	.
=43	=43	=43	=43	=43	=43
2G\	1B	0d]	1r	1g	2r
2G\	.	.	.	.	1g
1D	1A	.	1d	2r	.
.	.	.	.	[2dd\	2f/
=44	=44	=44	=44	=44	=44
0r	1r	0r	2e\	2dd\]	2g/
.	.	.	2e\	2cc\	2g/
.	1G	.	1g	2dd\	2d/
.	.	.	.	2b\	[2dd\
=45	=45	=45	=45	=45	=45
0r	1A	0r	1e	1a	2dd\]
.	.	.	.	.	2cc\
.	1G	.	2r	[1d	2dd\
.	.	.	[2g\	.	2b\
=46	=46	=46	=46	=46	=46
0r	2r	0r	2g\]	1d]	1a
.	1d	.	2f\	.	.
.	.	.	2g\	2r	1ee
.	2c\	.	2e\	2g/	.
=47	=47	=47	=47	=47	=47
0r	2d\	0r	2d\	2f/	2ff\
.	2A/	.	2c\	1a	2.ee\
.	1B	.	1d	.	.
.	.	.	.	.	4dd\
.	.	.	.	2g/	[2dd\
=48	=48	=48	=48	=48	=48
1AA	1.A	0r	1e	0a	2dd\]
.	.	.	.	.	2cc#i\
2.D\	.	.	2d\	.	1dd
.	2d\	.	2d\	.	.
4E\	.	.	.	.	.
=49	=49	=49	=49	=49	=49
2F\	2c\	0r	2A/	[0a	0r
2D\	1f	.	1d	.	.
1A	.	.	.	.	.
.	[2e\	.	2c\	.	.
=50	=50	=50	=50	=50	=50
1D	2e\]	0r	2c\	0a]	1r
.	1d	.	1f	.	.
1A	.	.	.	.	2r
.	2c\	.	2e\	.	[2a/
=51	=51	=51	=51	=51	=51
1B-i	2d\	0r	1d	2r	2a/]
.	2G/	.	.	1dd	2g/
1A	2.c\	.	1e	.	1a
.	.	.	.	2cc\	.
.	4B\	.	.	.	.
=52	=52	=52	=52	=52	=52
2D\	2A/	0r	2d\	2dd\	1f
2A\	2c\	.	2f\	2cc\	.
2G\	2B\	.	2e\	1dd	[1g
2F\	[2A/	.	[2d\	.	.
=53	=53	=53	=53	=53	=53
1E	2A/]	0r	2d\]	1ee	1g]
.	2G/	.	2c\	.	.
2D\	1A	.	2d\	2ff\	2f/
2A\	.	.	2c\	[2ee\	[2a/
=54	=54	=54	=54	=54	=54
1B-i	2r	0r	1d	4ee\]	2a/]
.	.	.	.	4dd\	.
.	2G/	.	.	1dd	2g/
1A	2.c\	.	1e	.	[1a
.	.	.	.	2cc#i\	.
.	4B\	.	.	.	.
=55	=55	=55	=55	=55	=55
1D	4A/	0r	2.d\	0dd	0a]
.	4G/	.	.	.	.
.	2A/	.	.	.	.
.	.	.	8c\L	.	.
.	.	.	8B\J	.	.
2r	2D/	.	4A/	.	.
.	.	.	4G/	.	.
2D\	2F/	.	[2A/	.	.
=56	=56	=56	=56	=56	=56
2C/	2E/	0r	4A/]	1g	1.cc
.	.	.	4G/	.	.
2BB/	1D	.	1G	.	.
1AA	.	.	.	1a	.
.	2C/	.	2F#i/	.	4b\
.	.	.	.	.	4a/
=57	=57	=57	=57	=57	=57
1GG	2D/	[0B	1G	0d	[0b
.	1G	.	.	.	.
2r	.	.	1r	.	.
[2G\	2G/	.	.	.	.
=58	=58	=58	=58	=58	=58
2G\]	1.E	0B_	2r	0r	0b]
2G\	.	.	1g	.	.
2E\	.	.	.	.	.
2G\	2E/	.	2g\	.	.
=59	=59	=59	=59	=59	=59
2G\	1E	0B]	2e\	0r	0r
4F\	.	.	2.g\	.	.
4E\	.	.	.	.	.
2D\	1F	.	.	.	.
.	.	.	4f\	.	.
2D\	.	.	[2f\	.	.
=60	=60	=60	=60	=60	=60
1C	1G	[0c	2f\]	1r	2r
.	.	.	2e\	.	2g/
1r	[1F	.	[1f	2r	2a/
.	.	.	.	[2a/	2f/
=61	=61	=61	=61	=61	=61
2r	1F]	0c_	2f\]	2a/]	2.cc\
1F	.	.	4e\	2f/	.
.	.	.	4d\	.	4b\
.	1r	.	1c	2.cc\	2a/
2E\	.	.	.	.	[2g/
.	.	.	.	4b\	.
=62	=62	=62	=62	=62	=62
2F\	0r	0c]	0r	2a/	4g/]
.	.	.	.	.	4f/
2G\	.	.	.	4g/	1f
.	.	.	.	4f/	.
1C	.	.	.	1g	.
.	.	.	.	.	2e/
=63	=63	=63	=63	=63	=63
0r	0D	[0d	1r	2f/	0f
.	.	.	.	2a/	.
.	.	.	2r	2b-i\	.
.	.	.	2A/	2a/	.
=64	=64	=64	=64	=64	=64
0r	1D	0d_	2B-i\	2.dd\	1r
.	.	.	2A/	.	.
.	.	.	.	4cc\	.
.	1D	.	2.d\	2b-i\	2r
.	.	.	.	[2a/	2a/
.	.	.	4c\	.	.
=65	=65	=65	=65	=65	=65
0r	0D	0d_	2B-i\	2a/]	0dd
.	.	.	4A/	1g	.
.	.	.	4G/	.	.
.	.	.	1A	.	.
.	.	.	.	2f#i/	.
=66	=66	=66	=66	=66	=66
1.GG	[0G	0d_	1G	2g/	1b
.	.	.	.	2.dd\	.
.	.	.	2r	.	2r
.	.	.	.	4cc\	.
2GG/	.	.	[2d\	4b\	[2g/
.	.	.	.	4a/	.
=67	=67	=67	=67	=67	=67
1GG	0G]	0d_	4d\]	2b\	4g/]
.	.	.	4c\	.	4a/
.	.	.	4B\	1g	4b\
.	.	.	4A/	.	4cc\
1GG	.	.	2B\	.	4dd\
.	.	.	.	.	4ee\
.	.	.	2G/	4f/	[2dd\
.	.	.	.	4e/	.
=68	=68	=68	=68	=68	=68
1GG	0G	0d]	2B\	1d	4dd\]
.	.	.	.	.	4cc\
.	.	.	2c\	.	1cc
1GG	.	.	1d	[1g	.
.	.	.	.	.	2b\
=69	=69	=69	=69	=69	=69
2C/	2E/	[0c	2r	0g]	0cc
1C	1G	.	1e	.	.
2C/	2G/	.	2e\	.	.
=70	=70	=70	=70	=70	=70
2F\	2A/	0c_	2f\	0r	0r
2C/	2G/	.	1g	.	.
2F\	2A/	.	.	.	.
2F\	2A/	.	2f\	.	.
=71	=71	=71	=71	=71	=71
1C	0G	0c_	2f\	1r	1.cc
.	.	.	4e\	.	.
.	.	.	4d\	.	.
[1C	.	.	1e	[1cc	.
.	.	.	.	.	2b\
=72	=72	=72	=72	=72	=72
2C/]	1.c	0c_	[0e	2cc\]	2a/
2C/	.	.	.	2b\	2g/
2C/	.	.	.	2a/	1cc
2C/	2B\	.	.	2g/	.
=73	=73	=73	=73	=73	=73
2C/	2A/	0c_	0e_	0cc	2r
1C	2G/	.	.	.	2g/
.	2c\	.	.	.	2a/
2D\	2G/	.	.	.	2g/
=74	=74	=74	=74	=74	=74
2C/	2A/	0c]	0e]	0r	2.cc\
2C/	2G/	.	.	.	.
.	.	.	.	.	4b\
1C	2.c\	.	.	.	2a/
.	.	.	.	.	[2g/
.	4B\	.	.	.	.
=75	=75	=75	=75	=75	=75
1C	2A/	0c	1r	1cc	4g/]
.	.	.	.	.	4f/
.	4G/	.	.	.	1f
.	4F/	.	.	.	.
1C	1G	.	2r	1cc	.
.	.	.	[2c\	.	2e/
=76	=76	=76	=76	=76	=76
1F	1F	0A	2c\]	2cc\	[0f
.	.	.	2c\	2a/	.
2r	1D	.	2.f\	1a	.
[2D\	.	.	.	.	.
.	.	.	4e\	.	.
=77	=77	=77	=77	=77	=77
2D\]	2.F/	[0A	2d\	1a	0f]
2D\	.	.	2d\	.	.
.	4G/	.	.	.	.
2.F\	2A/	.	2c\	1a	.
.	4D/	.	[2f\	.	.
4E\	4E/	.	.	.	.
=78	=78	=78	=78	=78	=78
2D\	4F/	0A_	2f\]	1a	0r
.	4G/	.	.	.	.
2C/	1A	.	1e	.	.
2D\	.	.	.	1r	.
2D\	4G/	.	[2d\	.	.
.	4F/	.	.	.	.
=79	=79	=79	=79	=79	=79
1AA	1E	0A_	2d\]	2r	1r
.	.	.	2c#i\	1a	.
2r	1D	.	1d	.	2r
[2A\	.	.	.	2a/	[2a/
=80	=80	=80	=80	=80	=80
2A\]	2r	0A_	1c	2.cc\	2a/]
2A\	1A	.	.	.	2a/
.	.	.	.	4b\	.
2F\	.	.	1c	2a/	2.cc\
[2F\	2A/	.	.	[2f/	.
.	.	.	.	.	4b\
=81	=81	=81	=81	=81	=81
2F\]	2.c\	0A_	2r	2f/]	2a/
2F\	.	.	2.f\	4e/	4f/
.	4B\	.	.	4d/	4g/
[1F	1A	.	.	2c/	4a/
.	.	.	4e\	.	4b-i\
.	.	.	2c\	[2f/	[2a/
=82	=82	=82	=82	=82	=82
2F\]	2D/	0A]	2d\	2f/]	4a/]
.	.	.	.	.	4g/
2C/	2E/	.	4c\	2e/	1g
.	.	.	4B\	.	.
1D	1F	.	1A	1d	.
.	.	.	.	.	2f#i/
=83	=83	=83	=83	=83	=83
0GG	0D	[0G	2B\	0d	[0g
.	.	.	1G	.	.
.	.	.	2A/	.	.
=84	=84	=84	=84	=84	=84
1G	2r	0G_	2B\	1d	0g]
.	1G	.	2G/	.	.
1C	.	.	1c	1e	.
.	2A/	.	.	.	.
=85	=85	=85	=85	=85	=85
0r	2B\	0G_	2G/	1d	2r
.	2G/	.	2d\	.	1g
.	1c	.	2.e\	1r	.
.	.	.	.	.	2a/
.	.	.	4c\	.	.
=86	=86	=86	=86	=86	=86
0r	2G/	0G]	2d\	2r	2b\
.	1E	.	2e\	1g	2g/
.	.	.	1c	.	1cc
.	2F/	.	.	2a/	.
=87	=87	=87	=87	=87	=87
2r	1G	0r	2B\	2b\	1g
1C	.	.	2.e\	2g/	.
.	1A	.	.	1cc	1r
.	.	.	4c\	.	.
2D\	.	.	2f\	.	.
=88	=88	=88	=88	=88	=88
2E\	2r	0r	1e	2g/	1g
2C/	2.G/	.	.	1cc	.
1G	.	.	1d	.	1g
.	4A/	.	.	.	.
.	4B\	.	.	2b\	.
.	4G/	.	.	.	.
=89	=89	=89	=89	=89	=89
2.C/	2A/	0r	0c	2cc\	1e
.	1G	.	.	2.c/	.
4C/	.	.	.	.	.
2C/	.	.	.	.	2r
.	.	.	.	4d/	.
2C/	[2c\	.	.	4e/	[2g/
.	.	.	.	4c/	.
=90	=90	=90	=90	=90	=90
1G	2c\]	0r	0r	1d	4g/]
.	.	.	.	.	4a/
.	2B\	.	.	.	4b\
.	.	.	.	.	4g/
[1C	1c	.	.	2c/	2a/
.	.	.	.	2g/	[2g/
=91	=91	=91	=91	=91	=91
1C]	1C	0r	2r	2e/	2g/]
.	.	.	2.G/	4d/	1cc
.	.	.	.	4c/	.
1r	1G	.	.	1d	.
.	.	.	4A/	.	.
.	.	.	4B\	.	2b\
.	.	.	4G/	.	.
=92	=92	=92	=92	=92	=92
0C	1C	0r	2A/	1c	2cc\
.	.	.	1G	.	2.c/
.	[1G	.	.	2r	.
.	.	.	.	.	4d/
.	.	.	[2c\	[2g/	4e/
.	.	.	.	.	4c/
=93	=93	=93	=93	=93	=93
1GG	1G]	0r	2c\]	4g/]	1d
.	.	.	.	4a/	.
.	.	.	2B\	4b\	.
.	.	.	.	4g/	.
2r	2C/	.	1c	2a/	1c
[2C/	[2E/	.	.	[2g/	.
=94	=94	=94	=94	=94	=94
4C/]	4E/]	0r	1e	2g/]	1.g
4D\	4F/	.	.	.	.
4E\	2.G/	.	.	1cc	.
4C/	.	.	.	.	.
1G	.	.	1d	.	.
.	4A/	.	.	.	.
.	4B\	.	.	2b\	2g/
.	4G/	.	.	.	.
=95	=95	=95	=95	=95	=95
[0C	2A/	[0c	1c	0cc	2e/
.	2G/	.	.	.	2g/
.	[1E	.	2r	.	2a/
.	.	.	2G/	.	2g/
=96	=96	=96	=96	=96	=96
0C_	1E]	1c]	2A/	2r	1.cc
.	.	.	2G/	2g/	.
.	2r	1c	[1c	2a/	.
.	2G/	.	.	2g/	2cc\
=97	=97	=97	=97	=97	=97
0C]	2A/	0c	2c\]	1.cc	2cc\
.	2G/	.	2c\	.	1g
.	[1c	.	[1G	.	.
.	.	.	.	2cc\	4f/
.	.	.	.	.	4e/
=98	=98	=98	=98	=98	=98
1C	2c\]	0c	0G]	2.g/	2.e/
.	2c\	.	.	.	.
.	.	.	.	8f/L	4f/
.	.	.	.	8e/J	.
2C/	2G/	.	.	1e	4g/
.	.	.	.	.	4a/
2C/	[2c\	.	.	.	[2g/
=99	=99	=99	=99	=99	=99
1F	4c\]	0c	2.A/	1r	2g/]
.	4B\	.	.	.	.
.	2A/	.	.	.	1f
.	.	.	4B\	.	.
1C	1G	.	[1c	1g	.
.	.	.	.	.	2e/
=100	=100	=100	=100	=100	=100
0F	2.F/	[0A	1c]	1a	2f/
.	.	.	.	.	2c/
.	4E/	.	.	.	.
.	4F/	.	2r	2.f/	2d/
.	4G/	.	.	.	.
.	2A/	.	2c\	.	2c/
.	.	.	.	4g/	.
=101	=101	=101	=101	=101	=101
2r	2D/	0A_	2d\	1a	2f/
2C/	2A/	.	2c\	.	2e/
2D\	2r	.	2f\	2r	1r
2C/	[2A/	.	2e\	2c/	.
=102	=102	=102	=102	=102	=102
2.F\	2A/]	0A]	2r	2d/	0r
.	2A/	.	2c\	2c/	.
4E\	.	.	.	.	.
1D	2F/	.	1d	1f	.
.	2F/	.	.	.	.
=103	=103	=103	=103	=103	=103
0C	2G/	[0c	2.e\	2.e/	1g
.	1G	.	.	.	.
.	.	.	4d\	4f/	.
.	.	.	4c\	4g/	[1cc
.	.	.	4B\	4a/	.
.	2C/	.	[2c\	[2g/	.
=104	=104	=104	=104	=104	=104
2C/	2E/	0c_	2c\]	4g/]	2cc\]
.	.	.	.	4f/	.
2r	2F/	.	4B\	1f	2cc\
.	.	.	4A/	.	.
1r	1C	.	1G	.	1cc
.	.	.	.	2e/	.
=105	=105	=105	=105	=105	=105
0F	2.c\	0c]	2F/	1f	0a
.	.	.	2.f\	.	.
.	4B\	.	.	.	.
.	4A/	.	.	1r	.
.	4G/	.	4e\	.	.
.	2A/	.	2f\	.	.
=106	=106	=106	=106	=106	=106
1.G	1.G	0B	1d	1g	2r
.	.	.	.	.	2b\
.	.	.	1g	2d/	[1dd
2G\	[2d\	.	.	2d/	.
=107	=107	=107	=107	=107	=107
1D	4d\]	0A	1r	2f/	2dd\]
.	4c\	.	.	.	.
.	2.A/	.	.	2f/	2dd\
1F	.	.	1f	2c/	2.a/
.	4B\	.	.	.	.
.	[2c\	.	.	2cc\	.
.	.	.	.	.	4b\
=108	=108	=108	=108	=108	=108
2C/	4c\]	[0G	2e\	2cc\	2cc\
.	4B\	.	.	.	.
2G\	1G	.	2d\	2b\	2.dd\
2E\	.	.	2g\	1cc	.
.	.	.	.	.	4cc\
2C/	2A/	.	2e\	.	[2cc\
=109	=109	=109	=109	=109	=109
1G	2B\	0G]	1d	1dd	2cc\]
.	1G	.	.	.	2b\
1C	.	.	[1c	1ee	[1cc
.	2c\	.	.	.	.
=110	=110	=110	=110	=110	=110
[0F	2c\	[0A	0c]	2r	1cc]
.	2c\	.	.	2cc\	.
.	2A/	.	.	2cc\	2r
.	[2c\	.	.	2cc\	2cc\
=111	=111	=111	=111	=111	=111
0F]	4c\]	1A]	2r	2a/	2cc\
.	4B\	.	.	.	.
.	4A/	.	2c\	2.cc\	2cc\
.	4G/	.	.	.	.
.	1F	1A	2c\	.	2a/
.	.	.	.	4b\	.
.	.	.	2c\	4a/	[2cc\
.	.	.	.	4g/	.
=112	=112	=112	=112	=112	=112
2r	1c	[0A	2A/	2.f/	4cc\]
.	.	.	.	.	4b\
2F\	.	.	2.c\	.	4a/
.	.	.	.	4g/	4g/
2F\	2c\	.	.	1a	2.f/
.	.	.	4B\	.	.
2F\	2c\	.	4A/	.	.
.	.	.	4G/	.	4g/
=113	=113	=113	=113	=113	=113
2D\	2d\	0A]	1F	2r	1a
2.A\	2B\	.	.	2cc\	.
.	1A	.	2r	2cc\	[1a
4G\	.	.	.	.	.
4F\	.	.	2f\	2cc\	.
4E\	.	.	.	.	.
=114	=114	=114	=114	=114	=114
1.D	1d	0A	2f\	2.dd\	0a_
.	.	.	2f\	.	.
.	.	.	.	4ee\	.
.	2r	.	2d\	2ff\	.
2C/	2A/	.	2e\	[2ee\	.
=115	=115	=115	=115	=115	=115
1D	2F/	[0A	1f	4ee\]	1a]
.	.	.	.	4dd\	.
.	2D/	.	.	1dd	.
1AA	2A/	.	1e	.	2r
.	2A/	.	.	2cc#i\	[2a/
=116	=116	=116	=116	=116	=116
0D	2F/	0A]	2d\	1dd	4a/]
.	.	.	.	.	4g/
.	2d\	.	4c\	.	1g
.	.	.	4B\	.	.
.	2d\	.	1A	2r	.
.	2d\	.	.	2dd\	2f#i/
=117	=117	=117	=117	=117	=117
1GG	2B\	[0B	1G	2dd\	[0g
.	2.d\	.	.	2dd\	.
2r	.	.	2r	2b\	.
.	4c\	.	.	.	.
2G\	4B\	.	[2d\	[2dd\	.
.	4A/	.	.	.	.
=118	=118	=118	=118	=118	=118
2G\	0G	0B]	2d\]	4dd\]	1g]
.	.	.	.	4cc\	.
2G\	.	.	2d\	4b\	.
.	.	.	.	4a/	.
1E	.	.	2e\	1g	1r
.	.	.	2e\	.	.
=119	=119	=119	=119	=119	=119
1F	1r	[0A	2c\	1a	2.f/
.	.	.	2.f\	.	.
.	.	.	.	.	4g/
2D\	1F	.	.	2f/	2a/
.	.	.	4e\	.	.
[2F\	.	.	4d\	[2a/	[2f/
.	.	.	4c\	.	.
=120	=120	=120	=120	=120	=120
4F\]	2D/	0A]	2d\	4a/]	4f/]
4E\	.	.	.	4g/	4g/
2C/	2E/	.	4c\	1g	2e/
.	.	.	4B\	.	.
1D	1F	.	1A	.	2d/
.	.	.	.	2f#i/	[2dd\
=121	=121	=121	=121	=121	=121
[0GGl	[0Dl	[0G	2B\	[0gl	4dd\]
.	.	.	.	.	4cc\
.	.	.	2.d\	.	4b\
.	.	.	.	.	4a/
.	.	.	.	.	2.b\
.	.	.	4c\	.	.
.	.	.	4B\	.	.
.	.	.	4A/	.	4cc\
=122	=122	=122	=122	=122	=122
0GG_	0D_	0G]	2.B\	0g_	1.dd
.	.	.	4c\	.	.
.	.	.	[1dl	.	.
.	.	.	.	.	2b\
=123	=123	=123	=123	=123	=123
0GG]	0D]	0Gl	0d]	0g]	0bl
==	==	==	==	==	==
*-	*-	*-	*-	*-	*-
!!!RDF**kern: l=long note in original notation
!!!RDF**kern: i=editorial accidental
!!!ENC:	Victoria Chang
!!!END:	2011/03/21/
!!!SMS: Smijers, No. 55, afl. 38; 
!!!SMS1: Franz Commer and Robert Eitner: "Josquin Desprez, 
!!!SMS2: Missa (L'homme arme), Motetten, Psalmen und Chansons 
!!!SMS3: zu 4 bis 6 Stimmen". PAMw, vol. 6.
!!!EED:	Jesse Rodin
!!!EEV:	2011/04/04/
!!attribution-level@Jos: 4 (questionable)
!!!ONB:	Translated from MusicXML and edited on 2011/04/04/ by Craig Sapp
!!muse2ps: C^@{COM}{/}@{COA}?\n@{SCT}^I150v100,100,100,100,100,130Q16
